src/pos-icons/chart-areaspline-variant.svg

<svg height="24" viewBox="0 0 24 24" width="24" xmlns="http://www.w3.org/2000/svg"><path d="m22 21h-20v-18h2v12.54l5.5-9.54 6.5 3.78 4.24-7.33 1.73 1z"/></svg>

<?xml version="1.0" encoding="UTF-8"?><!DOCTYPE svg PUBLIC "-//W3C//DTD SVG 1.1//EN" "http://www.w3.org/Graphics/SVG/1.1/DTD/svg11.dtd"><svg xmlns="http://www.w3.org/2000/svg" xmlns:xlink="http://www.w3.org/1999/xlink" version="1.1" id="mdi-chart-areaspline-variant" width="24" height="24" viewBox="0 0 24 24"><path d="M22,21H2V3H4V15.54L9.5,6L16,9.78L20.24,2.45L21.97,3.45L22,21Z" /></svg>
